docs/assets/img/logo.svg

<?xml version="1.0" encoding="UTF-8" standalone="no"?>
<svg width="96px" height="96px" viewBox="0 0 96 96" version="1.1" xmlns="http://www.w3.org/2000/svg" xmlns:xlink="http://www.w3.org/1999/xlink">
    <!-- Generator: Sketch 45.2 (43514) - http://www.bohemiancoding.com/sketch -->
    <title>logo</title>
    <desc>Created with Sketch.</desc>
    <defs></defs>
    <g id="assets" stroke="none" stroke-width="1" fill="none" fill-rule="evenodd">
        <g id="logo" fill="#060606">
            <g id="logo-/-black">
                <g id="logo">
                    <path d="M93.3482743,92.8498383 L64.3075886,92.8498383 C78.1453029,87.1381787 87.4662171,78.112817 93.3482743,65.3672851 L93.3482743,92.8498383 Z M92.9197029,52.741583 C91.4646171,75.7652426 69.3517029,92.3487319 53.18256,92.1036255 C66.3208457,79.0898383 79.6463314,65.8894979 92.9197029,52.741583 L92.9197029,52.741583 Z M34.6819886,79.3587745 C43.02096,82.4634553 51.3469029,82.8038809 59.9594743,79.813583 C55.5859886,84.2193702 51.5471314,88.2881362 47.5192457,92.3460085 C43.3165029,88.0940936 39.10896,83.8374128 34.6819886,79.3587745 L34.6819886,79.3587745 Z M3.24473143,53.6940936 C16.1587886,66.4913702 29.1811886,79.3955404 42.0040457,92.1022638 C23.9245029,91.4711149 4.44747429,73.5136681 3.24473143,53.6940936 L3.24473143,53.6940936 Z M2.73044571,92.8253277 L2.73044571,65.4163064 C8.51650286,78.0066043 17.6838171,87.1102638 30.4648457,92.8253277 L2.73044571,92.8253277 Z M2.66324571,2.67996596 L30.4367314,2.67996596 C17.8573029,8.42634894 8.52541714,17.4517106 2.66324571,30.1121362 L2.66324571,2.67996596 Z M15.70896,61.0956255 C13.5983314,59.0592 11.5007314,57.0098383 9.37501714,54.9897532 C7.15261714,52.8791149 4.90278857,50.7963915 2.73113143,48.7626894 C7.23010286,44.4420085 11.3731886,40.4617532 15.5533029,36.4474553 C12.72816,44.4052426 12.9071314,52.6026894 15.70896,61.0956255 L15.70896,61.0956255 Z M3.19810286,42.7943489 C3.72130286,23.063966 23.2950171,3.79724255 42.8598171,3.3138383 C29.73936,16.3739234 16.3562743,29.6961362 3.19810286,42.7943489 L3.19810286,42.7943489 Z M58.1402743,15.0489872 C51.0205029,13.1705191 43.6333029,13.0241362 35.6077029,15.9422638 C39.9558171,11.5712 43.6970743,7.81085957 47.3389029,4.15060426 C50.9272457,7.77137021 54.5670171,11.4438809 58.1402743,15.0489872 L58.1402743,15.0489872 Z M79.6909029,47.520817 C80.0056457,64.5686468 65.7571886,79.0374128 48.4141029,79.2797957 C31.2314743,79.5201362 16.5887314,65.5797106 16.3069029,48.7136681 C16.0106743,30.9407319 29.8086171,16.622434 47.5542171,16.288817 C64.95696,15.9620085 79.3672457,29.9657532 79.6909029,47.520817 L79.6909029,47.520817 Z M80.5672457,36.8219234 C84.7939886,41.1031149 88.3507886,44.7061787 91.86096,48.261583 C88.26096,51.8285617 84.4483886,55.6066043 80.3197029,59.6985191 C82.7018743,52.2125617 83.0563886,44.9186043 80.5672457,36.8219234 L80.5672457,36.8219234 Z M92.9766171,43.6529021 C79.42416,30.0964766 65.7805029,16.4474553 52.5894171,3.25188085 C70.6237029,3.10549787 92.11536,21.1718809 92.9766171,43.6529021 L92.9766171,43.6529021 Z M93.2611886,2.56694468 L93.2611886,30.1189447 C87.4662171,17.5980936 78.3482743,8.47741277 65.6803886,2.56694468 L93.2611886,2.56694468 Z M-6.85714286e-05,95.5262638 L95.9347886,95.5262638 L95.9347886,0.000136170213 L-6.85714286e-05,0.000136170213 L-6.85714286e-05,95.5262638 Z" id="Fill-1"></path>
                    <path d="M39.3757714,47.8770383 C39.4025143,52.5510809 43.1286857,56.2011234 47.9184,56.2433362 C52.7019429,56.2855489 56.4733714,52.7246979 56.6201143,48.0275064 C56.7689143,43.2608681 52.9001143,39.2908255 48.0665143,39.2506553 C43.2198857,39.2104851 39.3483429,43.0538894 39.3757714,47.8770383" id="Fill-4"></path>
                </g>
            </g>
        </g>
    </g>
</svg>

<svg width="96" height="96" viewBox="0 0 96 96" xmlns="http://www.w3.org/2000/svg"><title>logo</title><g fill="#060606" fill-rule="evenodd"><path d="M93.348 92.85h-29.04c13.837-5.712 23.158-14.737 29.04-27.483V92.85zm-.428-40.108c-1.455 23.023-23.568 39.607-39.737 39.362C66.32 79.09 79.646 65.889 92.92 52.742zM34.682 79.359c8.339 3.104 16.665 3.445 25.277.455L47.52 92.346 34.682 79.359zM3.245 53.694l38.759 38.408c-18.08-.63-37.557-18.588-38.76-38.408zM2.73 92.825V65.416c5.787 12.59 14.954 21.694 27.735 27.41H2.73zM2.663 2.68h27.774C17.857 8.426 8.525 17.452 2.663 30.112V2.68zM15.71 61.096c-2.11-2.037-4.208-4.086-6.334-6.106-2.222-2.11-4.472-4.194-6.644-6.227 4.5-4.321 8.642-8.301 12.822-12.316-2.825 7.958-2.646 16.156.156 24.649zM3.199 42.794c.522-19.73 20.096-38.997 39.66-39.48L3.2 42.794zM58.14 15.05c-7.12-1.878-14.507-2.025-22.532.893l11.73-11.791c3.59 3.62 7.229 7.293 10.802 10.898zm21.55 32.472c.316 17.048-13.933 31.516-31.276 31.759-17.183.24-31.825-13.7-32.107-30.566-.296-17.773 13.502-32.092 31.247-32.425 17.403-.327 31.813 13.677 32.137 31.232zm.877-10.7l11.294 11.44L80.32 59.7c2.382-7.486 2.736-14.78.247-22.877zm12.41 6.832L52.589 3.252c18.035-.147 39.526 17.92 40.388 40.4zm.284-41.086v27.552c-5.795-12.52-14.913-21.642-27.58-27.552h27.58zM0 95.527h95.935V0H0v95.526z"/><path d="M39.376 47.877c.027 4.674 3.753 8.324 8.542 8.366 4.784.043 8.555-3.518 8.702-8.215.149-4.767-3.72-8.737-8.553-8.777-4.847-.04-8.719 3.803-8.691 8.626"/></g></svg>
